!!!OTL-incipit: MEIN FEINES LIEB VERLIESS MIT MIR
!!!ARE: Europa, Mitteleuropa, Deutschland
!!!SCT: Z0298
!!!TXL: @@DE
!!!YEM: Copyright 1995, estate of Helmut Schaff#rath.
**kern	**text
*ICvox	*
*M6/4	*
*k[f#c#]	*
*b:	*
!LO:TX:a:t=Altes Lied.	!
{4f#	Mein
=1	=1
2B	fei-
4d	-nes
2c#	Lieb
4e	ver-
=2	=2
2d	-ließ
4c#	mit
2B}	mir,
{4f#	ich
=3	=3
2g	ſollt
4f#	in
2e	die-
4f#	-ſem
=4	=4
(2e	Gar-
4d)	.
2c#}	-ten
{4f#	ein
=5	=5
2e	we-
4f#	-nig
2e	ih-
4f#	-rer
=6	=6
(2e	war-
4d)	.
2c#}	-ten;
{4c#	ſo
=7	=7
2d	ſitʒ
4c#	ich
2B	und
4c#	ver-
=8	=8
2d	-ſchmachte
4e	.
2f#;}	ſchier.
{4f#	Wo
=9	=9
2a	bleibſt
4g	du
2f#	doch,
4e	mein
=10	=10
2g	ſü-
4f#	-ßes
2.e	Le-
=11	=11
[2.d	-ben?
2d]}	.
{4f#	Säum
=12	=12
2B	nicht,
4c#	mein
2d	Son-
4e	-nen-
=13	=13
[2.f#	-ſchein,
2f#]}	.
{4f#	mit
=14	=14
2B	Ae-
4c#	-pfeln
2d	wart
4e	ich
=15	=15
[2.f#	dein
2f#]}	.
{4f#	und
=16	=16
2g	Trau-
4e	-ben
2c#	von
4e	den
=17	=17
2f#	be-
4d	-ſten
2.c#	Re-
=18	=18
[2.B	-ben.
2B]}	.
==	==
!!!AGN: Lyrisches Lied, Romanze, verlassene Liebe
!!!ONB: ESAC (Essen Associative Code) Database: ZUcc#AL
!!!AMT: compound duple
!!!AIN: vox
!!!EED: Helmut Schaff#rath
!!!EEV: 1.0
!!!GTL: IV. Lyrische Lieder.
!!!URL-scan: https://www.digitale-sammlungen.de/de/view/bsb11160571?page=536
!!!ENC: Anna Maria Matuszewska
!!!EEV: 2025/01/31
*-	*-
